img/svg/search.svg

<svg width="54" height="55" viewBox="0 0 54 55" fill="none" xmlns="http://www.w3.org/2000/svg">
<path fill-rule="evenodd" clip-rule="evenodd" d="M21.1322 35.7943C28.8436 42.2067 40.2224 41.7507 47.4121 34.4264C55.0792 26.616 55.0792 13.9527 47.4121 6.14217C39.7451 -1.66832 27.3143 -1.66832 19.6473 6.14217C12.4487 13.4754 12.0088 25.0864 18.3276 32.9424L0.211914 51.3969L3.01401 54.2515L21.1322 35.7943ZM44.61 31.5719C38.4905 37.8059 28.5689 37.8059 22.4494 31.5719C16.3299 25.3379 16.3299 15.2307 22.4494 8.99668C28.5689 2.7627 38.4905 2.7627 44.61 8.99668C50.7295 15.2307 50.7295 25.3379 44.61 31.5719Z" fill="#00042A"/>
</svg>

<svg width="54" height="55" fill="none" xmlns="http://www.w3.org/2000/svg"><path fill-rule="evenodd" clip-rule="evenodd" d="M21.132 35.794a19.37 19.37 0 0026.28-1.368c7.667-7.81 7.667-20.473 0-28.284a19.379 19.379 0 00-27.765 0c-7.198 7.333-7.638 18.944-1.32 26.8L.213 51.397l2.802 2.855 18.118-18.458zm23.478-4.222a15.467 15.467 0 01-22.16 0c-6.12-6.234-6.12-16.341 0-22.575a15.467 15.467 0 0122.16 0c6.12 6.234 6.12 16.34 0 22.575z" fill="#00042A"/></svg>
